!!!!SEGMENT: pl-wn--sd-xvi-qu-273--008_gomolka-mikolaj--melodiae-na-psalterz-polski-viii-wszechmocny-panie-wiekuisty-boze.krn
!!!cenid: 15xx:213
!!!COM: Gomółka, Mikołaj
!!!COM-rismID: pe30013343
!!!CDT: ~1535->1591/04/30
!!!CNT: Polish
!!!GTL: Melodiae na psalterz polski
!!!OTL: VIII. Wszechmocny Panie, wiekuisty Boże,
!!!PDT: 1580
!!!AGN: Sacred
!!!SMS-siglum: PL-Wn
!!!SMS-shelfmark: SD XVI.Qu.273
!!!SMS-shelfwork: 008 G
!!!NIFC-rismSourceID:
!!!NIFC-islandoraID:
!!!URL-pdf-islandora:
!!!URL-scan: https://polona.pl/item/melodiae-na-psalterz-polski,Nzk3MTM4ODQ/34 @EN{Scan on Polona} @PL{Skany w portalu Polona}
!!!IIIF: https://polona.pl/iiif/item/Nzk3MTM4ODQ/manifest.json
!!!ONB-nifc:
!!!AIN: 1 alto 1 bass 1 soprn 1 tenor
!!!key: C
**kern	**text	**kern	**text	**kern	**text	**kern	**text
*part4	*part4	*part3	*part3	*part2	*part2	*part1	*part1
*staff4	*staff4	*staff3	*staff3	*staff2	*staff2	*staff1	*staff1
*I"BASSVS	*	*I"TENOR	*	*I"ALTVS	*	*I"CANTVS	*
*I'B	*	*I'T	*	*I'A	*	*I'C	*
*Ibass	*	*Itenor	*	*Ialto	*	*Isoprn	*
*ICvox	*	*ICvox	*	*ICvox	*	*ICvox	*
*clefF3	*	*clefC3	*	*clefC2	*	*clefG2	*
*mclefF4	*	*mclefGv2	*	*mclefG2	*	*mclefG2	*
*k[]	*	*k[]	*	*k[]	*	*k[]	*
*C:	*	*C:	*	*C:	*	*C:	*
*M2/1	*	*M2/1	*	*M2/1	*	*M2/1	*
*met(C|)	*	*met(C|)	*	*met(C|)	*	*met(C|)	*
*MM300	*	*MM300	*	*MM300	*	*MM300	*
=1-	=1-	=1-	=1-	=1-	=1-	=1-	=1-
*xywh-10r:2821,5439,2704,1352	*	*xywh-10r:2892,4137,2744,1341	*	*xywh-10r:2730,2856,2917,1301	*	*xywh-10r:2963,1250,2653,1667	*
!!LO:TX:a:i:t=Psalm VIII.
1G	Wßech-	1B	Wßech-	1d	Wßech-	1g	Wßech-
2E\	-moc-	2B/	-moc-	4e/	-moc-	2g/	-moc-
.	.	.	.	4d/	.	.	.
2E\	-ny	2B/	-ny	4e/	-ny	2g/	-ny
.	.	.	.	4f/	.	.	.
=2-	=2-	=2-	=2-	=2-	=2-	=2-	=2-
4C/	pá-	1e	pá-	1g	pá-	1cc	pá-
4D\	.	.	.	.	.	.	.
4E\	.	.	.	.	.	.	.
4F\	.	.	.	.	.	.	.
2G\	-nie/	2d\	-nie/	2g/	-nie/	2b/	-nie/
1c	wie-	1e	wie-	1g	wie-	1ee	wie-
=3-	=3-	=3-	=3-	=3-	=3-	=3-	=3-
.	.	.	.	.	.	.	.
2A\	-ku-	2e\	-ku-	2a/	-ku-	2cc	-ku-
2A\	-iſ-	2e\	-iſ-	4a/	-iſ-	2cc	-iſ-
.	.	.	.	4g/	.	.	.
2A\	-ty	4f\	-ty	4a/	-ty	2cc\	-ty
.	.	4g\	.	4b\	.	.	.
!!LO:PB:g=original
=4-	=4-	=4-	=4-	=4-	=4-	=4-	=4-
*xywh-10v:1184,5390,5091,1326	*	*xywh-10v:1235,4145,5071,1285	*	*xywh-10v:1163,2870,5050,1234	*	*xywh-10v:1184,1213,5050,1635	*
!!LO:TX:a:i:t=Domine dominus noſter, quam admirabile
4F\	Bo-	2a\	Bo-	1cc	Bo-	2ff\	Bo-
4G\	.	.	.	.	.	.	.
4A\	.	2a\	.	.	.	2ff\	.
4B\	.	.	.	.	.	.	.
2c\	-że/	2g\	-że/	2cc\	-że/	2ee\	-że/
2G\	kto	2g\	kto	2b\	kto	2dd\	kto
=5-	=5-	=5-	=5-	=5-	=5-	=5-	=5-
2F\	ſie	2a\	ſie	2.cc\	ſie	2.ff\	ſie
2G\	twy(m)	1g	twy(m)	.	.	.	.
.	.	.	.	4b\	twy(m)	4ee\	twy(m)
1D	sprá-	.	.	4a/	sprá-	2.dd\	sprá-
.	.	.	.	4g/	.	.	.
.	.	2f\	sprá-	2a/	.	.	.
.	.	.	.	.	.	4cc\	.
=6-	=6-	=6-	=6-	=6-	=6-	=6-	=6-
2G\	-wom	4g\	-wom	4b\	-wom	2b\	-wom
.	.	4fny\	.	4a/	.	.	.
4c\	wy-	4e\	wy-	2g/	wy-	2.ee\	wy-
4B\	.	4d\	.	.	.	.	.
2.A\	-dźi-	2e\	.	4cc\	-dźi-	.	.
.	.	.	.	4b\	.	4dd\	.
.	.	2e\	-dźi-	1a	-wo-	4cc\	-dźi-
4G\	.	.	.	.	.	4b\	.
=7-	=7-	=7-	=7-	=7-	=7-	=7-	=7-
2F\	-wo-	2.f\	-wo-	.	.	4a/	-wo-
.	.	.	.	.	.	4b\	.
2C/	-wáć	.	.	2.g/	-wáć	1cc	-wáć
.	.	4e\	.	.	.	.	.
1G	mo-	4d\	-wáć	.	.	.	.
.	.	4c\	.	4f/	.	.	.
.	.	2d\	mo-	2d/	mo-	2b\	mo-
=8-	=8-	=8-	=8-	=8-	=8-	=8-	=8-
2C/	-że/	2c\	-że/	2e/	-że/	2cc\	-że/
4r	.	4r	.	4r	.	4r	.
4c\	Kto	4e\	Kto	4g/	Kto	4cc\	Kto
2A\	ro-	2e\	ro-	2a/	ro-	2cc\	ro-
2A\	-zu-	2e\	-zu-	2a/	-zu-	2cc\	-zu-
=9-	=9-	=9-	=9-	=9-	=9-	=9-	=9-
1d	-mo:-	4f\	-mo:-	4a/	-mo:-	1dd	-mo:-
.	.	2g\	.	2b\	.	.	.
.	.	4f\	.	4a/	.	.	.
2G\	-(wi)	4g\	-(wi)	2b\	-(wi)	2dd\	-(wi)
.	.	4f\	.	.	.	.	.
2c\	któ-	4e\	któ-	4g/	któ-	2ee\	któ-
.	.	4d\	.	4f/	.	.	.
=10-	=10-	=10-	=10-	=10-	=10-	=10-	=10-
2c\	-rym	2c\	-rym	4e/	-rym	2ee\	-rym
.	.	.	.	4f/	.	.	.
2B\	nie-	2d\	nie-	2g/	nie-	2dd\	nie-
!!LO:PB:g=z
=-	=-	=-	=-	=-	=-	=-	=-
*xywh-11r:553,5303,1886,1344	*	*xywh-11r:586,4027,2112,1321	*	*xywh-11r:609,2818,1965,1186	*	*xywh-11r:598,1169,2033,1592	*
!!LO:TX:a:i:t=est nomen tuum.
2A\	-zmie-	2e\	-zmie-	2g/	-zmie-	2cc\	-zmie-
2A\	-rzo:-	2c\	-rzo:-	2f/	-rzo:-	2cc\	-rzo:-
=11-	=11-	=11-	=11-	=11-	=11-	=11-	=11-
2G\	-(ny)	2d\	-(ny)	2g/	-(ny)	2b\	-(ny)
2E\	Ten	2g\	Ten	2b\	Ten	2ee\	Ten
2F\	świát	2.f\	świát	2a/	świát	2dd\	świát
2F\	ſtwo.-	.	.	2a/	ſtwo.-	1cc	ſtwo.-
.	.	4e\	ſtwo.-	.	.	.	.
=12-	=12-	=12-	=12-	=12-	=12-	=12-	=12-
1G	-(rzo-	4d\	-(rzo-	2.g/	-(rzo-	.	.
.	.	4c\	.	.	.	.	.
.	.	2d\	.	.	.	2b\	-(rzo-
.	.	.	.	4f/	.	.	.
1Cl;	-ny)	1cl	-ny)	1el;	-ny)	1ccl	-ny)
==-	==-	==-	==-	==-	==-	==-	==-
*-	*-	*-	*-	*-	*-	*-	*-
!!!system-decoration: s1,s2,s3,s4
!!!RDF**kern: l = terminal long
!!!EED: Andrzej Kubiczek
!!!EEV: 2021-11-30
!!!ENC: Marta Chmielewska
!!!END: 2021-12-17
